Numix/16/status/indicator-keyboard-Th.svg

<?xml version="1.0" encoding="UTF-8" standalone="no"?>
<svg
   xmlns:dc="http://purl.org/dc/elements/1.1/"
   xmlns:cc="http://creativecommons.org/ns#"
   xmlns:rdf="http://www.w3.org/1999/02/22-rdf-syntax-ns#"
   xmlns:svg="http://www.w3.org/2000/svg"
   xmlns="http://www.w3.org/2000/svg"
   xmlns:sodipodi="http://sodipodi.sourceforge.net/DTD/sodipodi-0.dtd"
   xmlns:inkscape="http://www.inkscape.org/namespaces/inkscape"
   viewBox="0 0 16 16"
   id="svg2"
   version="1.1"
   inkscape:version="0.91 r13725"
   sodipodi:docname="indicator-keyboard-Th.svg">
  <metadata
     id="metadata13">
    <rdf:RDF>
      <cc:Work
         rdf:about="">
        <dc:format>image/svg+xml</dc:format>
        <dc:type
           rdf:resource="http://purl.org/dc/dcmitype/StillImage" />
      </cc:Work>
    </rdf:RDF>
  </metadata>
  <defs
     id="defs11" />
  <sodipodi:namedview
     pagecolor="#ffffff"
     bordercolor="#666666"
     borderopacity="1"
     objecttolerance="10"
     gridtolerance="10"
     guidetolerance="10"
     inkscape:pageopacity="0"
     inkscape:pageshadow="2"
     inkscape:window-width="640"
     inkscape:window-height="480"
     id="namedview9"
     showgrid="false"
     inkscape:zoom="14.75"
     inkscape:cx="8"
     inkscape:cy="8"
     inkscape:window-x="65"
     inkscape:window-y="24"
     inkscape:window-maximized="0"
     inkscape:current-layer="svg2" />
  <path
     style="fill:#ececec;fill-opacity:1"
     d="M 1.5996094 0 C 0.71320937 2.9605947e-16 0 0.71320937 0 1.5996094 L 0 14.400391 C 2.9605947e-16 15.286791 0.71320937 16 1.5996094 16 L 14.400391 16 C 15.286791 16 16 15.286791 16 14.400391 L 16 1.5996094 C 16 0.71320937 15.286791 0 14.400391 0 L 1.5996094 0 z M 9.546875 4.5078125 L 9.546875 6.9746094 C 9.738875 6.9026094 9.9348123 6.8485 10.132812 6.8125 C 10.330813 6.7705 10.528563 6.7480469 10.726562 6.7480469 C 11.086562 6.7480469 11.386953 6.8003438 11.626953 6.9023438 C 11.866953 7.0043438 12.059125 7.15175 12.203125 7.34375 C 12.347125 7.52975 12.446 7.7535781 12.5 8.0175781 C 12.56 8.2815781 12.589844 8.572625 12.589844 8.890625 L 12.589844 11.492188 L 12.003906 11.492188 L 12.003906 9.0800781 C 12.003906 8.7500781 11.979641 8.4701875 11.931641 8.2421875 C 11.889641 8.0141875 11.815031 7.8295469 11.707031 7.6855469 C 11.605031 7.5415469 11.466969 7.4389063 11.292969 7.3789062 C 11.118969 7.3129063 10.900719 7.2792969 10.636719 7.2792969 C 10.534719 7.2792969 10.422734 7.2886406 10.302734 7.3066406 C 10.188734 7.3246406 10.080516 7.3451406 9.9785156 7.3691406 C 9.8765156 7.3871406 9.7851719 7.4095938 9.7011719 7.4335938 C 9.6231719 7.4575938 9.570875 7.4743281 9.546875 7.4863281 L 9.546875 11.492188 L 8.9628906 11.492188 L 8.9628906 4.6152344 L 9.546875 4.5078125 z M 3.4101562 5.2558594 L 8.0195312 5.2558594 L 8.0195312 5.7851562 L 6.0214844 5.7851562 L 6.0214844 11.492188 L 5.4082031 11.492188 L 5.4082031 5.7851562 L 3.4101562 5.7851562 L 3.4101562 5.2558594 z "
     id="path4" />
</svg>

<svg xmlns="http://www.w3.org/2000/svg" viewBox="0 0 16 16">
 <path d="m 1.6 0 c -0.886 0 -1.6 0.713 -1.6 1.6 l 0 12.801 c 0 0.886 0.713 1.6 1.6 1.6 l 12.801 0 c 0.886 0 1.6 -0.713 1.6 -1.6 l 0 -12.801 c 0 -0.886 -0.713 -1.6 -1.6 -1.6 l -12.801 0 z m 7.947 4.508 l 0 2.467 c 0.192 -0.072 0.388 -0.126 0.586 -0.162 c 0.198 -0.042 0.396 -0.064 0.594 -0.064 c 0.36 0 0.66 0.052 0.9 0.154 c 0.24 0.102 0.432 0.249 0.576 0.441 c 0.144 0.186 0.243 0.41 0.297 0.674 c 0.06 0.264 0.09 0.555 0.09 0.873 l 0 2.602 l -0.586 0 l 0 -2.412 c 0 -0.33 -0.024 -0.61 -0.072 -0.838 c -0.042 -0.228 -0.117 -0.413 -0.225 -0.557 c -0.102 -0.144 -0.24 -0.247 -0.414 -0.307 c -0.174 -0.066 -0.392 -0.1 -0.656 -0.1 c -0.102 0 -0.214 0.009 -0.334 0.027 c -0.114 0.018 -0.222 0.038 -0.324 0.063 c -0.102 0.018 -0.193 0.04 -0.277 0.064 c -0.078 0.024 -0.13 0.041 -0.154 0.053 l 0 4.01 l -0.584 0 l 0 -6.877 l 0.584 -0.107 z m -6.137 0.748 l 4.609 0 l 0 0.529 l -1.998 0 l 0 5.707 l -0.613 0 l 0 -5.707 l -1.998 0 l 0 -0.529 z" style="fill:#ececec;fill-opacity:1"/>
</svg>
